src/assets/images/realtime/realtimekit/web/components-gallery/rtk-idle-screen.svg

<svg xmlns="http://www.w3.org/2000/svg" width="400" height="300" fill="none" viewBox="0 0 400 300"><path fill="#fff" d="M0 0h400v300H0z"/><rect width="362" height="239" x="19" y="30" fill="#050505" rx="8"/><path fill="#212121" fill-rule="evenodd" d="M200 177.062a7.062 7.062 0 1 0 0-14.125 7.062 7.062 0 0 0 0 14.125m0 1.938a9 9 0 1 0-.001-18.001A9 9 0 0 0 200 179" clip-rule="evenodd"/><path fill="#2160fd" fill-rule="evenodd" d="M200 162.936a7.065 7.065 0 1 1-6.048 3.414l-1.657-1.001a9 9 0 0 0 1.249 10.921A9 9 0 1 0 200 161z" clip-rule="evenodd"/><rect width="100.365" height="30.85" x="149.704" y="113.765" fill="#2160fd" fill-opacity=".5" rx="15.425"/><rect width="100.365" height="30.85" x="149.704" y="113.765" stroke="#2160fd" stroke-width="1.407" rx="15.425"/><path fill="#fff" d="M166.246 124.456h1.419l2.839 4.778h.119l2.839-4.778h1.419l-3.698 6.017v4.217h-1.239v-4.217zm12.11 10.394q-1.038 0-1.824-.494a3.37 3.37 0 0 1-1.219-1.385q-.435-.889-.435-2.078 0-1.2.435-2.094a3.36 3.36 0 0 1 1.219-1.389q.786-.495 1.824-.495 1.04 0 1.819.495.785.495 1.22 1.389.44.894.439 2.094 0 1.189-.439 2.078a3.3 3.3 0 0 1-1.22 1.385q-.779.494-1.819.494m0-1.059q.79 0 1.3-.405.509-.405.754-1.064a4.1 4.1 0 0 0 .245-1.429 4.1 4.1 0 0 0-.245-1.435 2.4 2.4 0 0 0-.754-1.074q-.51-.41-1.3-.41-.789 0-1.299.41t-.754 1.074a4.1 4.1 0 0 0-.245 1.435q0 .77.245 1.429.244.66.754 1.064.51.405 1.299.405m10.116-2.239v-4.537h1.179v7.675h-1.179v-1.299h-.08q-.27.585-.84.995-.569.404-1.439.404a2.57 2.57 0 0 1-1.279-.314 2.2 2.2 0 0 1-.88-.96q-.32-.645-.319-1.624v-4.877h1.179v4.797q0 .84.47 1.339.474.5 1.209.5.44 0 .894-.225.46-.225.77-.689.315-.465.315-1.185m3.339 3.138v-7.675h1.139v1.159h.08q.21-.57.76-.924a2.23 2.23 0 0 1 1.239-.355q.13 0 .325.005.195.004.295.015v1.199a4 4 0 0 0-.275-.045 3 3 0 0 0-.445-.035q-.56 0-.999.235-.435.23-.69.64-.25.405-.25.924v4.857zm9.353 0v-10.234h1.24v9.135h4.757v1.099zm10.874.16q-1.04 0-1.824-.494a3.36 3.36 0 0 1-1.219-1.385q-.435-.889-.435-2.078 0-1.2.435-2.094a3.35 3.35 0 0 1 1.219-1.389q.784-.495 1.824-.495t1.819.495q.784.495 1.219 1.389.44.894.44 2.094 0 1.189-.44 2.078a3.3 3.3 0 0 1-1.219 1.385q-.78.494-1.819.494m0-1.059q.789 0 1.299-.405t.755-1.064a4.1 4.1 0 0 0 .245-1.429 4.1 4.1 0 0 0-.245-1.435 2.4 2.4 0 0 0-.755-1.074q-.51-.41-1.299-.41t-1.299.41-.755 1.074a4.1 4.1 0 0 0-.245 1.435q0 .77.245 1.429.245.66.755 1.064.51.405 1.299.405m8.376 3.938q-.854 0-1.469-.22a3.1 3.1 0 0 1-1.669-1.319l.94-.66q.16.21.404.48.246.274.67.474.43.205 1.124.205.93 0 1.534-.449.605-.45.605-1.41v-1.559h-.1q-.13.21-.37.52-.235.305-.679.545-.44.234-1.19.234a3.2 3.2 0 0 1-1.669-.439q-.734-.44-1.164-1.279-.425-.84-.425-2.039 0-1.18.415-2.054.415-.879 1.154-1.359.74-.485 1.709-.485.75 0 1.19.25.444.245.679.56.24.31.37.509h.12v-1.219h1.139v7.895q0 .99-.449 1.609a2.56 2.56 0 0 1-1.2.915 4.5 4.5 0 0 1-1.669.295m-.04-4.218q.71 0 1.2-.325.489-.325.744-.934.255-.61.255-1.459 0-.83-.25-1.464a2.2 2.2 0 0 0-.739-.995q-.49-.36-1.21-.36-.749 0-1.249.38-.495.38-.745 1.02a4 4 0 0 0-.244 1.419q0 .8.249 1.414.255.61.75.959.5.345 1.239.345m8.635 1.339q-1.04 0-1.824-.494a3.37 3.37 0 0 1-1.219-1.385q-.435-.889-.435-2.078 0-1.2.435-2.094a3.36 3.36 0 0 1 1.219-1.389q.784-.495 1.824-.495t1.819.495q.785.495 1.219 1.389.44.894.44 2.094 0 1.189-.44 2.078a3.3 3.3 0 0 1-1.219 1.385q-.779.494-1.819.494m0-1.059q.79 0 1.3-.405.509-.405.754-1.064a4.1 4.1 0 0 0 .245-1.429 4.1 4.1 0 0 0-.245-1.435 2.4 2.4 0 0 0-.754-1.074q-.51-.41-1.3-.41-.789 0-1.299.41a2.4 2.4 0 0 0-.755 1.074 4.1 4.1 0 0 0-.244 1.435q0 .77.244 1.429.245.66.755 1.064.51.405 1.299.405"/></svg>

<svg width="400" height="300" viewBox="0 0 400 300" fill="none" xmlns="http://www.w3.org/2000/svg">
<rect width="400" height="300" fill="white"/>
<rect x="19" y="30" width="362" height="239" rx="8" fill="#050505"/>
<path fill-rule="evenodd" clip-rule="evenodd" d="M200 177.062C203.9 177.062 207.062 173.9 207.062 170C207.062 166.1 203.9 162.938 200 162.938C196.1 162.938 192.938 166.1 192.938 170C192.938 173.9 196.1 177.062 200 177.062ZM200 179C204.97 179 209 174.97 209 170C209 165.03 204.97 161 200 161C195.029 161 191 165.03 191 170C191 174.97 195.029 179 200 179Z" fill="#212121"/>
<path fill-rule="evenodd" clip-rule="evenodd" d="M200 162.936C201.561 162.936 203.078 163.453 204.314 164.406C205.55 165.359 206.436 166.695 206.833 168.205C207.229 169.714 207.115 171.313 206.507 172.751C205.899 174.189 204.832 175.385 203.473 176.152C202.113 176.919 200.538 177.215 198.993 176.992C197.448 176.77 196.02 176.042 194.932 174.922C193.845 173.802 193.159 172.354 192.981 170.803C192.804 169.252 193.145 167.686 193.952 166.35L192.295 165.349C191.956 165.911 191.681 166.504 191.474 167.118C191.052 168.366 190.907 169.698 191.058 171.023C191.284 172.999 192.158 174.844 193.544 176.27C194.929 177.697 196.749 178.624 198.717 178.908C200.685 179.192 202.692 178.815 204.424 177.837C206.156 176.86 207.515 175.336 208.29 173.505C209.064 171.673 209.21 169.636 208.705 167.713C208.199 165.789 207.071 164.088 205.496 162.873C204.441 162.059 203.225 161.495 201.938 161.211C201.306 161.072 200.656 161 200 161V162.936Z" fill="#2160FD"/>
<rect x="149.704" y="113.765" width="100.365" height="30.8502" rx="15.4251" fill="#2160FD" fill-opacity="0.5"/>
<rect x="149.704" y="113.765" width="100.365" height="30.8502" rx="15.4251" stroke="#2160FD" stroke-width="1.40718"/>
<path d="M166.246 124.456H167.665L170.504 129.234H170.623L173.462 124.456H174.881L171.183 130.473V134.69H169.944V130.473L166.246 124.456ZM178.356 134.85C177.664 134.85 177.056 134.685 176.532 134.356C176.013 134.026 175.606 133.564 175.313 132.971C175.023 132.378 174.878 131.686 174.878 130.893C174.878 130.093 175.023 129.395 175.313 128.799C175.606 128.203 176.013 127.74 176.532 127.41C177.056 127.08 177.664 126.915 178.356 126.915C179.049 126.915 179.656 127.08 180.175 127.41C180.698 127.74 181.105 128.203 181.395 128.799C181.688 129.395 181.834 130.093 181.834 130.893C181.834 131.686 181.688 132.378 181.395 132.971C181.105 133.564 180.698 134.026 180.175 134.356C179.656 134.685 179.049 134.85 178.356 134.85ZM178.356 133.791C178.883 133.791 179.316 133.656 179.656 133.386C179.995 133.116 180.247 132.762 180.41 132.322C180.573 131.882 180.655 131.406 180.655 130.893C180.655 130.38 180.573 129.902 180.41 129.458C180.247 129.015 179.995 128.657 179.656 128.384C179.316 128.111 178.883 127.974 178.356 127.974C177.83 127.974 177.397 128.111 177.057 128.384C176.717 128.657 176.466 129.015 176.303 129.458C176.139 129.902 176.058 130.38 176.058 130.893C176.058 131.406 176.139 131.882 176.303 132.322C176.466 132.762 176.717 133.116 177.057 133.386C177.397 133.656 177.83 133.791 178.356 133.791ZM188.472 131.552V127.015H189.651V134.69H188.472V133.391H188.392C188.212 133.781 187.932 134.112 187.552 134.386C187.173 134.655 186.693 134.79 186.113 134.79C185.633 134.79 185.207 134.685 184.834 134.476C184.461 134.262 184.168 133.943 183.954 133.516C183.741 133.086 183.635 132.545 183.635 131.892V127.015H184.814V131.812C184.814 132.372 184.97 132.818 185.284 133.151C185.6 133.484 186.003 133.651 186.493 133.651C186.786 133.651 187.084 133.576 187.387 133.426C187.694 133.276 187.95 133.046 188.157 132.737C188.367 132.427 188.472 132.032 188.472 131.552ZM191.811 134.69V127.015H192.95V128.174H193.03C193.17 127.794 193.423 127.486 193.79 127.25C194.156 127.013 194.569 126.895 195.029 126.895C195.116 126.895 195.224 126.897 195.354 126.9C195.484 126.903 195.582 126.908 195.649 126.915V128.114C195.609 128.104 195.517 128.089 195.374 128.069C195.234 128.046 195.086 128.034 194.929 128.034C194.556 128.034 194.223 128.113 193.93 128.269C193.64 128.422 193.41 128.636 193.24 128.909C193.074 129.179 192.99 129.487 192.99 129.833V134.69H191.811ZM201.164 134.69V124.456H202.404V133.591H207.161V134.69H201.164ZM212.038 134.85C211.345 134.85 210.737 134.685 210.214 134.356C209.694 134.026 209.288 133.564 208.995 132.971C208.705 132.378 208.56 131.686 208.56 130.893C208.56 130.093 208.705 129.395 208.995 128.799C209.288 128.203 209.694 127.74 210.214 127.41C210.737 127.08 211.345 126.915 212.038 126.915C212.731 126.915 213.337 127.08 213.857 127.41C214.38 127.74 214.786 128.203 215.076 128.799C215.369 129.395 215.516 130.093 215.516 130.893C215.516 131.686 215.369 132.378 215.076 132.971C214.786 133.564 214.38 134.026 213.857 134.356C213.337 134.685 212.731 134.85 212.038 134.85ZM212.038 133.791C212.564 133.791 212.997 133.656 213.337 133.386C213.677 133.116 213.929 132.762 214.092 132.322C214.255 131.882 214.337 131.406 214.337 130.893C214.337 130.38 214.255 129.902 214.092 129.458C213.929 129.015 213.677 128.657 213.337 128.384C212.997 128.111 212.564 127.974 212.038 127.974C211.512 127.974 211.079 128.111 210.739 128.384C210.399 128.657 210.147 129.015 209.984 129.458C209.821 129.902 209.739 130.38 209.739 130.893C209.739 131.406 209.821 131.882 209.984 132.322C210.147 132.762 210.399 133.116 210.739 133.386C211.079 133.656 211.512 133.791 212.038 133.791ZM220.414 137.729C219.845 137.729 219.355 137.655 218.945 137.509C218.535 137.366 218.194 137.176 217.921 136.939C217.651 136.706 217.436 136.456 217.276 136.19L218.216 135.53C218.322 135.67 218.457 135.83 218.62 136.01C218.784 136.193 219.007 136.351 219.29 136.484C219.576 136.621 219.951 136.689 220.414 136.689C221.034 136.689 221.545 136.539 221.948 136.24C222.351 135.94 222.553 135.47 222.553 134.83V133.271H222.453C222.366 133.411 222.243 133.584 222.083 133.791C221.927 133.994 221.7 134.176 221.404 134.336C221.111 134.492 220.714 134.57 220.214 134.57C219.595 134.57 219.038 134.424 218.545 134.131C218.056 133.838 217.668 133.411 217.381 132.852C217.098 132.292 216.956 131.612 216.956 130.813C216.956 130.026 217.095 129.342 217.371 128.759C217.648 128.173 218.032 127.72 218.525 127.4C219.018 127.077 219.588 126.915 220.234 126.915C220.734 126.915 221.131 126.998 221.424 127.165C221.72 127.328 221.947 127.515 222.103 127.725C222.263 127.931 222.386 128.101 222.473 128.234H222.593V127.015H223.732V134.91C223.732 135.57 223.582 136.106 223.283 136.519C222.986 136.936 222.586 137.241 222.083 137.434C221.584 137.63 221.027 137.729 220.414 137.729ZM220.374 133.511C220.847 133.511 221.247 133.403 221.574 133.186C221.9 132.97 222.148 132.658 222.318 132.252C222.488 131.845 222.573 131.359 222.573 130.793C222.573 130.24 222.49 129.752 222.323 129.329C222.157 128.905 221.91 128.574 221.584 128.334C221.257 128.094 220.854 127.974 220.374 127.974C219.875 127.974 219.458 128.101 219.125 128.354C218.795 128.607 218.547 128.947 218.38 129.374C218.217 129.8 218.136 130.273 218.136 130.793C218.136 131.326 218.219 131.797 218.385 132.207C218.555 132.613 218.805 132.933 219.135 133.166C219.468 133.396 219.881 133.511 220.374 133.511ZM229.009 134.85C228.316 134.85 227.708 134.685 227.185 134.356C226.666 134.026 226.259 133.564 225.966 132.971C225.676 132.378 225.531 131.686 225.531 130.893C225.531 130.093 225.676 129.395 225.966 128.799C226.259 128.203 226.666 127.74 227.185 127.41C227.708 127.08 228.316 126.915 229.009 126.915C229.702 126.915 230.309 127.08 230.828 127.41C231.351 127.74 231.758 128.203 232.047 128.799C232.341 129.395 232.487 130.093 232.487 130.893C232.487 131.686 232.341 132.378 232.047 132.971C231.758 133.564 231.351 134.026 230.828 134.356C230.309 134.685 229.702 134.85 229.009 134.85ZM229.009 133.791C229.536 133.791 229.969 133.656 230.309 133.386C230.648 133.116 230.9 132.762 231.063 132.322C231.226 131.882 231.308 131.406 231.308 130.893C231.308 130.38 231.226 129.902 231.063 129.458C230.9 129.015 230.648 128.657 230.309 128.384C229.969 128.111 229.536 127.974 229.009 127.974C228.483 127.974 228.05 128.111 227.71 128.384C227.37 128.657 227.119 129.015 226.955 129.458C226.792 129.902 226.711 130.38 226.711 130.893C226.711 131.406 226.792 131.882 226.955 132.322C227.119 132.762 227.37 133.116 227.71 133.386C228.05 133.656 228.483 133.791 229.009 133.791Z" fill="white"/>
</svg>
